!!!COM: Scarlatti, Domenico
!!!CDT: 1685///-1757///
!!!OTL: Sonata in D Major, K.281, L.56
!!!SCT: K. 281
!!!SCT: L. 056
!!!OMD: Andante
**kern	**kern	**dynam
*staff2	*staff1	*staff1
*Icemba	*Icemba	*Icemba
*>[A,A1,A,A2,B,B]	*>[A,A1,A,A2,B,B]	*>[A,A1,A,A2,B,B]
*>norep[A,A2,B]	*>norep[A,A2,B]	*>norep[A,A2,B]
*>A	*>A	*>A
*clefF4	*clefG2	*clefG2
*k[f#c#]	*k[f#c#]	*k[f#c#]
*M3/4	*M3/4	*M3/4
*MM126	*MM126	*MM126
=1-	=1-	=1-
[2.DD/ [2.D/	4dd\	.
.	(8aa\L	.
.	8ff#\	.
.	8dd\	.
.	8a\J	.
=2	=2	=2
2.DD/] 2.D/]	8b\L	.
.	8gg\	.
.	8cc#\	.
.	8ee\	.
.	8a\	.
.	8ee\ 8gg\J	.
=3	=3	=3
[2.DD/ [2.D/	4dd\ 4ff#\)	.
.	(8ff#\L	.
.	8dd\	.
.	8a\	.
.	8f#\J	.
=4	=4	=4
2.DD/] 2.D/]	8g/L	.
.	8ee/	.
.	8cc#/	.
.	8g/	.
.	8e/	.
.	8g/ 8cc#/J	.
=5	=5	=5
[2.DD/ [2.D/	4f#/ 4dd/)	.
.	(8aa\L	p
.	8ff#\	.
.	8dd\	.
.	8a\J	.
=6	=6	=6
2.DD/] 2.D/]	8b\L	.
.	8gg\	.
.	8cc#\	.
.	8ee\	.
.	8a\	.
.	8ee\ 8gg\J	.
=7	=7	=7
[2.DD/ [2.D/	4dd\ 4ff#\)	.
.	(8ff#\L	.
.	8dd\	.
.	8a\	.
.	8f#\J	.
=8	=8	=8
2.DD/] 2.D/]	8g/L	.
.	8ee/	.
.	8cc#/	.
.	8g/	.
.	8e/	.
.	8g/ 8cc#/J	.
=9	=9	=9
4DD/ 4D/	4f#/ 4dd/)	.
(8f#\L	(4.aa\	mf
8d\	.	.
8g\	.	.
8e\J	8dd\)	.
=10	=10	=10
4a\)	(8dd\L	.
.	8cc#\J)	.
(8B\L	(4.gg\	.
8G\	.	.
8c#\	.	.
8A\J	8ee\)	.
=11	=11	=11
4d\)	(8ee\L	.
.	8ff#\J)	.
(8f#\L	(4.aa\	p
8d\	.	.
8g\	.	.
8e\J	8dd\)	.
=12	=12	=12
4a\)	(8dd\L	.
.	8cc#\J)	.
(8B\L	(4.gg\	.
8G\	.	.
8c#\	.	.
8A\J	8ee\)	.
=13	=13	=13
4d\)	(8ee\L	.
.	8ff#\J)	<
(4d'\	(8f#/L	(
.	8d/	(
4d'\	8g#/	(
.	8e/J	(
=14	=14	=14
4c#'\	8a/L	(
.	8f#/	(
4c#'\	8b/	(
.	8g#/	(
4c#'\	8cc#/	(
.	8a/J	[
=15	=15	=15
4B'\)	4dd\)	mf
(4e'\	(8g#/L	p
.	8e/	.
4e'\	8a/	.
.	8f#/J	.
=16	=16	=16
4d'\	8b\L	.
.	8g#\	.
4d'\	8cc#\	.
.	8a\	.
4d'\	8dd\	.
.	8b\J	.
=17	=17	=17
4c#'\)	4ee\)	mf
(4f#'\	(8a/L	p
.	8f#/	.
4f#'\	8b/	.
.	8g#/J	.
=18	=18	=18
4e'\	8cc#\L	.
.	8a\	.
4e'\	8dd\	.
.	8b\	.
4e'\	8ee\	.
.	8cc#\J	.
=19	=19	=19
4d'\)	8ff#\L	mf
.	8dd\	.
(4d\	8gg#\	.
.	8ee\	.
4c#\	8aa\)	.
.	(8a\J	.
=20	=20	=20
4B\	8dd\L	.
.	16ee\L	.
.	16ff#\JJ	.
4G#\	8ee\L	.
.	8dd\	.
4E\	8cc#\	.
.	8b\J	.
=21	=21	=21
4AA/)	8.cc#\L	.
.	16dd\Jk	.
(8a\L	4ee\)	.
8e\	.	.
8f#\	[4a/	.
8c#\J	.	.
=22	=22	=22
8d\L	4a/]	.
8A\	.	.
8B\	(4.dd\	.
8F#\	.	.
8G#\	.	.
8E\J	16cc#\LL	.
.	16b\JJ	.
=23	=23	=23
4A\)	8.cc#\L	>
.	16dd\Jk	]
(8a\L	4ee\)	p
8e\	.	.
8f#\	[4a/	.
8c#\J	.	.
=24	=24	=24
8d\L	4a/]	.
8A\	.	.
8B\	(4.dd\	.
8F#\	.	.
8G#\	.	.
8E\J	16cc#\LL	.
.	16b\JJ	.
=25	=25	=25
4A\)	4cc#\	.
(8e\L	(8ee\L)	.
8B\	8g#\	.
8c#\	8a\	.
8G#\J	8b\J	.
=26	=26	=26
8A\L	4.cc#\	.
8E\	.	.
8F#\	.	.
8C#\	16dd\LL	.
.	16ee\JJ	.
8D\	8dd\L	.
8AA\J	8cc#\J	.
=27	=27	=27
4E\)	4b\	.
(8e\L	8ee\L)	mf
8B\	(8g#\	.
8c#\	8a\	.
8G#\J	8b\J	.
=28	=28	=28
8A\L	4.cc#\	.
8E\	.	.
8F#\	.	.
8C#\	16dd\LL	.
.	16ee\JJ	.
8D\	8dd\L	.
8AA\J	8cc#\J	.
=29	=29	=29
4E\)	4b\)	.
(4e'\	(8g#/L	p
.	8e/	.
4e'\	8a/	.
.	8f#/J	.
=30	=30	=30
4d'\	8b\L	.
.	8g#\	.
4d'\	8cc#\	.
.	8a\	.
4d'\	8dd\	.
.	8b\J	.
=31	=31	=31
4c#'\)	4ee\)	mf
(4f#'\	(8a/L	p
.	8f#/	.
4f#'\	8b/	.
.	8g#/J	.
=32	=32	=32
4e'\	8cc#\L	.
.	8a\	.
4e'\	8dd\	.
.	8b\	.
4e'\	8ee\	.
.	8cc#\J	.
=33	=33	=33
4d'\)	8ff#\L	mf
.	8dd\	.
(4d\	8gg#\	.
.	8ee\	.
4c#\	8aa\)	.
.	(8a\J	.
=34	=34	=34
4d\	8b\L	.
.	16cc#\L	.
.	16dd\JJ	.
4e\	8cc#\L	.
.	8b\	.
4E\	8a\	.
.	8g#\J	.
=35	=35	=35
4A\)	4a/)	.
(8c#\L	(4.ee\	.
8A\	.	.
8d\	.	.
8B\J	8ff#\	.
=36	=36	=36
4e\)	8a/L	.
.	8g#/J	.
(8F#\L	4.dd\)	.
8D\	.	.
8G#\	.	.
8E\J	8dd\	.
=37	=37	=37
4A\)	(8dd\L	.
.	8cc#\J)	.
(8c#\L	(4.ee\	p
8A\	.	.
8d\	.	.
8B\J	8ff#\	.
=38	=38	=38
4e\)	8a/L	.
.	8g#/J	.
(8F#\L	4.dd\)	.
8D\	.	.
8G#\	.	.
8E\J	(8dd\	.
=39	=39	=39
4A\ 4c#\)	8cc#'\)	.
.	(4gg#\	mf
4B\ (4d\	.	.
.	4aa\	.
4c#\ 4e\	.	.
.	[8b\	.
=40	=40	=40
4d\	8b\L]	.
.	16cc#\L	.
.	16dd\JJ	.
4e\	8cc#\L	.
.	8b\	.
4E\	8a\	.
.	8b\J	.
=41	=41	=41
4A\ 4c#\)	(8cc#'\)	.
.	4gg#\	p
4B\ (4d\	.	.
.	4aa\	.
4c#\ 4e\	.	.
.	[8b\	.
=42	=42	=42
4d\	8b\L]	.
.	16cc#\L	.
.	16dd\JJ	.
4e\	8cc#\L	.
.	8b\	.
4E\	8a\	.
.	8b\J	.
=43	=43	=43
*>A1	*>A1	*>A1
8A\L	4a/)	.
(8B\)	.	.
8A\	4r	.
8Gn\	.	.
8F#\	4r	.
8E\J)	.	.
=44:|!	=44:|!	=44:|!
*>A2	*>A2	*>A2
2.A\	2.a/	.
=45!|:	=45!|:	=45!|:
*>B	*>B	*>B
4AA/	4a/	mf
*clefG2	*	*
(4a'/	(8cc#\L	p
.	8a\	.
4a'/	8dd\	.
.	8b\J	.
=46	=46	=46
4g'/	8ee\L	.
.	8cc#\	.
4g'/	8ff#\	.
.	8dd\	.
4g'/	8gg\	.
.	8ee\J	.
=47	=47	=47
4f#'/)	4aa\)	mf
(4b'/	(8dd#\L	p
.	8b\	.
4b'/	8ee\	.
.	8cc#\J	.
=48	=48	=48
4a'/	8ff#\L	.
.	8dd#\	.
4a'/	8gg\	.
.	8ee\	.
4a'/	8aa\	.
.	8ff#\J	.
=49	=49	=49
4g'/)	8bb\L	mf
.	8gg\	.
(4g/	(8ee\)	.
.	8b\	.
4a/	8ccn\	mf
.	8cccn\J	.
=50	=50	=50
4B/ 4b/)	8bb\L	>
.	8ff#\	)
4B/ 4b/	(8dd#\)	)
.	8b\	]
(4cn/ 4a/	8ee\	mf
.	8aa\J	.
=51	=51	=51
4B/) 4b/	8bb\L	>
.	8ff#\	)
4B/ 4b/	(8dd#\)	)
.	8b\	]
(4A/ 4a/	8ccn\	mf
.	8cccn\J	.
=52	=52	=52
4B/) 4b/	8bb\L	>
.	8ff#\	)
4B/ 4b/	8dd#\)	)
.	(8b\	)
(4cn/ 4a/	8ee\	)
.	8aa\J	)
*clefF4	*	*
=53	=53	=53
*	*^	*
4B\) 4d\	2gg#/	8gg#\L)	]
.	.	8ddn\	p
4B\ 4d\	.	8b\	.
.	.	8ee\J	.
(4B\ 4d\	8gg#/L	[4ffn\	.
.	(8aa/J	.	.
=54	=54	=54	=54
4G#\) 4d\	[2.bb/)	8ffn\L]	.
.	.	(8dd\	p
4G#\ 4d\	.	8ee\	.
.	.	8ccn\	.
(4G#\ 4d\	.	8dd\	.
.	.	8b\J	.
=55	=55	=55	=55
4A\) 4cn\	8bb/L]	[2.ccn\)	.
.	(8bb/	.	.
4B\ (4d\	8aa/	.	.
.	8ff#/	.	.
4c\ 4e\	8ggn/	.	.
.	8ee/J	.	.
=56	=56	=56	=56
*^	*	*	*
2.d/)	(4D\	2.ff#/)	8cc\L]	.
.	.	.	8cc#\	p
.	4E\	.	8dd\	.
.	.	.	8b\	.
.	4F#\	.	8cc#\	.
.	.	.	8a\J	.
*v	*v	*	*	*
=57	=57	=57	=57
4G\ 4B\	8ff#/L	4b\	.
.	(8dd/	.	.
4A\ 4cn\	8gg/	4r	.
.	8ff#/	.	.
4B\ 4d\	8ee/	4r	.
.	8dd/J	.	.
*	*v	*v	*
=58	=58	=58
4cn\ 4e\	8ee\L	.
.	8ccn\	.
4f#\	8dd\	.
.	8b\	.
4d\	8cc\	.
.	8a\J	.
=59	=59	=59
4G\)	4b\)	.
(8g\L	(4dd\	mf
8d\	.	.
8e\	[4g/)	.
8B\J	.	.
=60	=60	=60
8cn\L	4g/]	.
8G\	.	.
8A\	(4.ccn\	.
8E\	.	.
8F#\	.	.
8D\J	16b\LL	.
.	16a\JJ	.
=61	=61	=61
4G\)	8.b\L	>
.	16ccn\Jk	]
(8g\L	4dd\)	p
8d\	.	.
8e\	[4g/	.
8B\J	.	.
=62	=62	=62
8cn\L	4g/]	.
8G\	.	.
8A\	(4.ccn\	.
8E\	.	.
8F#\	.	.
8D\J	16b\LL	.
.	16a\JJ	.
=63	=63	=63
4G\)	4b\	.
(8d\L	8dd/L)	p
8A\	(8f#/	.
8B\	8g/	.
8F#\J	8a/J	.
=64	=64	=64
8G/L	4.b\	.
8D/	.	.
8E/	.	.
8BB/	16ccn\LL	.
.	16dd\JJ	.
8Cn/	8cc\L	.
8GG/J	8b\J	.
=65	=65	=65
4D/)	4a/	.
(8d\L	8dd/L)	pp
8A\	(8f#/	.
8B\	8g/	.
8F#\J	8a/J	.
=66	=66	=66
*	*^	*
8G\L	2r	4.b\	.
8D\	.	.	.
8E\	.	.	.
8BB\	.	16cc#\LL	.
.	.	16dd\JJ	p
8C#\	[4ee^/)	(8a\L	.
8AA\J	.	8g\J	.
=67	=67	=67	=67
(4D\)	8ee/L]	4f#\)	<
.	(8ee/	.	(
4E\	8dd/	4r	(
.	8cc#/J	.	(
4F#\	[4aa/	8b\L	(
.	.	8a\J	(
=68	=68	=68	=68
4G\	8aa/L]	4b\)	(
.	(8aa/	.	(
4A\	8gg/	4r	(
.	8ff#/J	.	(
4B\	4bb/	8ee\L	(
.	.	8dd\J	(
*	*v	*v	*
=69	=69	=69
4A\)	8cc#\L	(
.	16b\L	(
.	16a\JJ)	[
(8f#\L	(4.aa\	f
8d\	.	.
8g\	.	.
8e\J	8dd\)	.
=70	=70	=70
4a\)	(8dd\L	.
.	8cc#\J)	.
(8B\L	4.gg\	.
8G\	.	.
8c#\	.	.
8A\J	8gg\	.
=71	=71	=71
4d\)	(8gg\L	.
.	8ff#\J)	.
(8F#\L	(4.aa\	p
8D\	.	.
8G\	.	.
8E\J	8dd\)	.
=72	=72	=72
4A\)	(8dd\L	.
.	8cc#\J)	.
(8BB/L	4.gg\	.
8GG/	.	.
8C#/	.	.
8AA/J	(8gg\	.
=73	=73	=73
4D\ 4F#\)	8ff#\)	.
.	(4ccc#\	mf
4E\ (4G\	.	.
.	4ddd\	.
4F#\ 4A\	.	.
.	[8ee\	.
=74	=74	=74
4G\	8ee\L]	.
.	16ff#\L	.
.	16gg\JJ	.
4A\	8ff#\L	.
.	8ee\	.
4AA/	8dd\	.
.	8cc#\J	.
=75	=75	=75
4D\)	4dd\)	.
(8f#\L	(4.aa\	.
8d\	.	.
8g\	.	.
8e\J	8dd\)	.
=76	=76	=76
4a\)	(8dd\L	.
.	8cc#\J)	.
(8B\L	4.gg\	.
8G\	.	.
8c#\	.	.
8A\J	8gg\	.
=77	=77	=77
4d\)	(8gg\L	.
.	8ff#\J)	.
(8F#\L	(4.aa\	p
8D\	.	.
8G\	.	.
8E\J	8dd\)	.
=78	=78	=78
4A\)	(8dd\L	.
.	8cc#\J)	.
(8BB/L	4.g/	.
8GG/	.	.
8C#/	.	.
8AA/J	(8g/	.
=79	=79	=79
4D\ 4F#\)	8f#'/)	.
.	(4cc#\	mf
4E\ (4G\	.	.
.	4dd\	.
4F#\ 4A\	.	.
.	[8e/	.
=80	=80	=80
4G\	8e/L]	.
.	16f#/L	.
.	16g/JJ	.
4A\	8f#/L	.
.	8e/	.
4AA/	8d/	.
.	8e/J	.
=81	=81	=81
4D\ 4F#\)	8f#'/)	.
.	(4cc#\	p
4E\ (4G\	.	.
.	4dd\	.
4F#\ 4A\	.	.
.	[8e/	.
=82	=82	=82
4G\	8e/L]	.
.	16f#/L	.
.	16g/JJ	.
4A\)	8f#/L	.
.	8e/	.
(4AA/	8d/	.
.	8c#/J	.
=83	=83	=83
2.DD/) 2.D/	2.d/)	.
==:|!	==:|!	==:|!
*-	*-	*-
!!!ENC: Craig Stuart Sapp
!!!END: 2005/06/21/
